icons/op-arrow-right6-24.svg

<svg width="24" height="24" viewBox="0 0 24 24" fill="none" xmlns="http://www.w3.org/2000/svg">
<path d="M4 4V20H20V4H4ZM12.8438 16.3438H10L13.2812 13.0312H6.8125V10.9375H13.2812L10 7.65625H12.8438L17.1875 12L12.8438 16.3438Z" fill="black"/>
</svg>

<svg xmlns="http://www.w3.org/2000/svg" width="24" height="24" viewBox="0 0 24 24"><path d="M4 4v16h16V4H4Zm8.844 12.344H10l3.281-3.313H6.812v-2.093h6.469L10 7.656h2.844L17.188 12l-4.344 4.344Z"/></svg>
